X:36
T:The Jolly Young Waterman
S:John Moore's Book 1
Z:Transcribed by David Jacobs  April 2021
M:6/8
L:1/8
K:D
%%VWML: Moore1-4493-p22-0
F:http://www.vwml.org/record/Moore1/4493/p22
a/|a>bg f>ge|d>cd ecA|A>Bc A>BA|d>ef ea/|
a>bg f>ge|dcd edA|ABc dgf|edc d2:|
B2g<b|d2f gfd|dgb bag dfa gfd|gab gfe|
fga fed|Bgb a>bg|f>ge d2:|]

